src/assets/icons/smallAnimal/bird.svg

<svg width="28" height="28" viewBox="0 0 28 28" fill="none" xmlns="http://www.w3.org/2000/svg">
<path d="M20.4578 15.3506C18.9845 19.6616 14.6658 22.824 9.51234 23C10.2318 21.9465 10.6479 20.7016 10.6479 19.3681C10.6479 19.2893 10.6458 19.2111 10.643 19.133C8.94861 18.5207 7.55623 17.3609 6.72617 15.8922C7.73248 16.4567 8.89563 16.81 10.1418 16.8859C10.3092 16.8962 10.4777 16.9017 10.6479 16.9017C10.6956 16.9017 10.7426 16.9007 10.7899 16.9001C10.5451 16.8516 10.305 16.7922 10.0697 16.7225C8.34885 16.2119 6.89995 15.1494 5.97417 13.7626C5.77708 13.4671 5.60365 13.1571 5.45636 12.8348C5.25149 12.3868 5.09713 11.9147 5 11.4244C5.28328 11.6947 5.59058 11.9441 5.91836 12.1695C6.67637 12.6901 7.54598 13.0825 8.48801 13.3121C7.52055 12.5018 6.78586 11.4629 6.38673 10.2889C6.22036 9.79999 6.11263 9.28747 6.06989 8.75847C6.05647 8.58989 6.04905 8.41937 6.04905 8.24756C6.04905 7.82159 6.09179 7.40466 6.17303 7C6.38178 7.35492 6.62338 7.69112 6.89465 8.00503C7.0649 8.20203 7.24681 8.39031 7.43931 8.5689C8.47883 9.5342 9.82812 10.2195 11.3399 10.4905C11.8097 10.5748 12.2953 10.6193 12.7923 10.6193C13.3002 10.6193 13.7962 10.5725 14.2762 10.4846C14.641 8.8053 16.1122 7.48992 17.9659 7.20055C18.2167 7.16148 18.4745 7.14081 18.7373 7.14081C19.0902 7.14081 19.4331 7.17762 19.763 7.24706C20.5546 8.7068 21 10.3513 21 12.091C21 12.1785 20.9986 12.2654 20.9965 12.3523" stroke="#323232" stroke-width="2.3" stroke-linecap="round" stroke-linejoin="round"/>
</svg>

<?xml version="1.0" encoding="utf-8"?>
<!-- Generator: Adobe Illustrator 26.1.0, SVG Export Plug-In . SVG Version: 6.00 Build 0)  -->
<svg version="1.1" id="Layer_1" xmlns="http://www.w3.org/2000/svg" xmlns:xlink="http://www.w3.org/1999/xlink" x="0px" y="0px"
	 viewBox="0 0 28 28" style="enable-background:new 0 0 28 28;" xml:space="preserve">
<style type="text/css">
	.st0{fill:none;stroke:#000000;stroke-width:2.3;stroke-linecap:round;stroke-linejoin:round;}
</style>
<path class="st0" d="M20.46,15.35c-1.47,4.31-5.79,7.47-10.95,7.65c0.72-1.05,1.14-2.3,1.14-3.63c0-0.08,0-0.16,0-0.24
	c-1.69-0.61-3.09-1.77-3.92-3.24c1.01,0.56,2.17,0.92,3.42,0.99c0.17,0.01,0.34,0.02,0.51,0.02c0.05,0,0.09,0,0.14,0
	c-0.24-0.05-0.48-0.11-0.72-0.18c-1.72-0.51-3.17-1.57-4.1-2.96c-0.2-0.3-0.37-0.61-0.52-0.93C5.25,12.39,5.1,11.91,5,11.42
	c0.28,0.27,0.59,0.52,0.92,0.75c0.76,0.52,1.63,0.91,2.57,1.14c-0.97-0.81-1.7-1.85-2.1-3.02c-0.17-0.49-0.27-1-0.32-1.53
	C6.06,8.59,6.05,8.42,6.05,8.25C6.05,7.82,6.09,7.4,6.17,7c0.21,0.35,0.45,0.69,0.72,1.01c0.17,0.2,0.35,0.39,0.54,0.56
	c1.04,0.97,2.39,1.65,3.9,1.92c0.47,0.08,0.96,0.13,1.45,0.13c0.51,0,1-0.05,1.48-0.13c0.36-1.68,1.84-2.99,3.69-3.28
	c0.25-0.04,0.51-0.06,0.77-0.06c0.35,0,0.7,0.04,1.03,0.11c0.79,1.46,1.24,3.1,1.24,4.84c0,0.09,0,0.17,0,0.26
	C21,12.35,21,14.05,20.46,15.35z"/>
</svg>
